X: 10961
M: 2/4
L: 1/8
K: D
V: 1 clef=treble
d2d>d | d3d | edcd | e>fga |\
fddd | d3d | edcd | e>fgz |\
{ga}a2aa | a3a | bagf | e>fgz |
{ef}g2gg | g3g | agfe | d>ef2 |\
d>dd>d | c3d/c/ | B3c/B/ | A2A2 |\
g>ggg | Hg2fe | fdge | c2d |]
V: 2 clef=treble
z |\
cBAB   | c>dez | {de}f2ff | f3f   | gfed   | c>dez  |
e2ee   | e3e   | fedA     | F>Ad2 | B>BB>B | A3B/A/ |



